X: 26836
T: Milltown Maid, The
R: reel
M: 4/4
K: Edorian
dc|B~E3 Bdcd|B~E3 dAFA|B~E3 Bcde|fdec dAFA|
B~E3 Bdcd|B~E3 dAFA|B~E3 Bcde|fdec dAFA|
BE E2 Bdcd|(3BAF DF dAFA|BE E2 Bcde|(3fed (3edc dAFA|
BE E2 Bdcd|(3BAF DF dAFA|BABc dcde|(3fed ec dAFA|:
Beec d2 dc|Beec dAFA|Beec dfag|fedc dAFA|Beec d2 dc|
Beec defg|1 afga gfeg|(3fga ef dfec:|2 afba gfeg|(3fga ef dfec||

